z_dist/img/icons/crypto/ku-coin-token-KCS.svg

<svg width="64" height="64" viewBox="0 0 64 64" fill="none" xmlns="http://www.w3.org/2000/svg">
<rect y="0.000244141" width="64" height="64" rx="4" fill="#0093DD"/>
<path fill-rule="evenodd" clip-rule="evenodd" d="M27.2333 32L37.6009 42.6196L44.1803 36.0074C45.3766 34.8052 47.171 34.8052 48.1679 36.0074C49.3641 37.2096 49.3641 39.2133 48.1679 40.4155L39.5947 49.2317C38.3984 50.4339 36.604 50.4339 35.4077 49.2317L23.0464 36.4081V44.0221C23.0464 45.6251 21.6507 47.0277 20.0557 47.0277C18.4607 47.0277 17.0651 45.6251 17.0651 44.0221V19.9779C17.0651 18.375 18.4607 16.9724 20.0557 16.9724C21.6507 16.9724 23.0464 18.375 23.0464 19.9779V27.5919L35.4077 14.7684C36.604 13.5661 38.3984 13.5661 39.5947 14.7684L48.1679 23.5846C49.3641 24.7868 49.3641 26.7905 48.1679 27.9927C46.9716 29.1949 45.1772 29.1949 44.1803 27.9927L37.6009 21.1801L27.2333 32ZM37.6 28.9943C39.195 28.9943 40.5906 30.3969 40.5906 31.9998C40.5906 33.6028 39.195 35.0054 37.6 35.0054C36.005 35.0054 34.6093 33.6028 34.6093 31.9998C34.6093 30.3969 36.005 28.9943 37.6 28.9943Z" fill="white"/>
</svg>

<svg width="64" height="64" fill="none" xmlns="http://www.w3.org/2000/svg"><rect width="64" height="64" rx="4" fill="#0093DD"/><path fill-rule="evenodd" clip-rule="evenodd" d="M27.233 32l10.368 10.62 6.58-6.613c1.196-1.202 2.99-1.202 3.987 0 1.196 1.203 1.196 3.206 0 4.409l-8.573 8.816c-1.197 1.202-2.991 1.202-4.187 0L23.046 36.408v7.614c0 1.603-1.395 3.006-2.99 3.006-1.595 0-2.99-1.403-2.99-3.006V19.978c0-1.603 1.395-3.006 2.99-3.006 1.595 0 2.99 1.403 2.99 3.006v7.614l12.362-12.824c1.196-1.202 2.99-1.202 4.187 0l8.573 8.817c1.196 1.202 1.196 3.206 0 4.408-1.196 1.202-2.99 1.202-3.988 0L37.6 21.18 27.234 32zM37.6 28.994c1.595 0 2.99 1.403 2.99 3.006 0 1.603-1.395 3.005-2.99 3.005-1.595 0-2.99-1.402-2.99-3.005s1.395-3.006 2.99-3.006z" fill="#fff"/></svg>
